logos/google-one.svg

<?xml version="1.0" encoding="UTF-8"?>
<svg width="256px" height="516px" viewBox="0 0 256 516" version="1.1" xmlns="http://www.w3.org/2000/svg" xmlns:xlink="http://www.w3.org/1999/xlink" preserveAspectRatio="xMidYMid">
    <defs>
        <linearGradient x1="50%" y1="100.77683%" x2="50%" y2="-0.0396858904%" id="linearGradient-1">
            <stop stop-color="#1A73E8" offset="0%"></stop>
            <stop stop-color="#4285F4" offset="100%"></stop>
        </linearGradient>
    </defs>
    <g>
        <path d="M256.00079,404.227562 L256.00079,458.30424 C256.00079,489.941733 230.427149,515.603255 198.877538,515.603255 C167.327927,515.603255 141.754287,489.971027 141.754287,458.30424 L141.754287,316.726458 L256.00079,404.227562 Z" fill="#34A853"></path>
        <path d="M256.00079,57.2990152 L256.00079,404.227562 L141.754287,316.726458 L141.754287,178.751836 L235.231361,101.47433 C248.940942,90.1668552 256.00079,73.7915231 256.00079,57.2990152 Z" fill="url(#linearGradient-1)"></path>
        <path d="M255.971496,55.3070249 C256.00079,55.9514923 256.00079,56.5959598 256.00079,57.2697212 C256.00079,73.7622292 248.940942,90.1375612 235.231361,101.445036 L141.754287,178.722542 L141.754287,57.2990152 C141.754287,38.5508712 150.747537,21.8533054 164.720763,11.3953563 C165.716758,10.6337129 166.712754,9.93065754 167.796631,9.25689611 C168.294628,8.93466239 168.763332,8.61242866 169.261329,8.31948891 C170.169443,7.73360941 171.136144,7.20631786 172.014963,6.73761426 L174.534245,5.47797333 L176.643411,4.51127216 C177.492936,4.15974446 178.342462,3.80821676 179.250575,3.48598303 C180.1001,3.1637493 181.008213,2.87080955 181.887033,2.5778698 C183.527495,2.07987223 185.197252,1.61116863 186.925596,1.25964093 C187.423594,1.14246503 187.950886,1.0545831 188.507471,0.937407201 C188.888293,0.878819251 189.269114,0.820231301 189.649936,0.761643351 C190.323697,0.644467451 190.997459,0.556585526 191.67122,0.468703601 C192.462158,0.351527701 193.253095,0.263645775 194.073326,0.205057825 C194.717794,0.146469875 195.362261,0.0878819251 196.006729,0.0585879501 C196.944136,0.029293975 197.910837,0 198.877538,0 L198.906832,0 C200.986704,0 203.007989,0.1171759 205.058567,0.322233725 C206.054562,0.439409626 207.079851,0.585879501 208.134434,0.761643351 C209.130429,0.908113226 210.126425,1.11317105 211.181008,1.34752285 C212.177003,1.55258068 213.172998,1.81622645 214.168993,2.1091662 C214.989224,2.31422403 215.83875,2.5778698 216.658981,2.87080955 C218.27015,3.39810111 219.881318,3.98398061 221.404605,4.65774203 C222.166248,4.97997576 222.927892,5.33150346 223.689535,5.68303116 C224.656236,6.15173476 225.622937,6.64973234 226.560345,7.14772991 C227.966455,7.93866724 229.313978,8.75889854 230.661501,9.66701176 C230.807971,9.78418766 230.954441,9.87206959 231.100911,9.95995152 C232.536316,10.9559467 233.913132,12.0398237 235.289949,13.1529948 C235.963711,13.7388743 236.637472,14.2954598 237.311233,14.9106333 L237.369821,14.9692212 C238.014289,15.5843947 238.658756,16.1995682 239.303224,16.8440357 C239.947691,17.4885031 240.592159,18.1622645 241.207332,18.806732 C242.466973,20.1542548 243.609438,21.5896596 244.693315,23.0543584 C245.454959,24.0503535 246.158014,25.1049366 246.831775,26.1302257 C247.154009,26.6282233 247.476243,27.0969269 247.769183,27.5949245 C248.355062,28.5030377 248.882354,29.4697389 249.351057,30.3485581 C249.702585,31.0516135 250.25917,32.1940786 250.610698,32.86784 C250.932932,33.5708954 251.255166,34.2739508 251.548105,34.9770062 C251.899633,35.8265315 252.251161,36.7053507 252.573394,37.58417 C252.895628,38.4336953 253.188568,39.3418085 253.452214,40.2206277 C253.833035,41.4802687 254.155269,42.7399096 254.448209,43.9702565 C254.623973,44.556136 254.741149,45.1127216 254.829031,45.6986011 C255.004794,46.5188324 255.151264,47.3097697 255.297734,48.100707 C255.41491,48.7451745 255.473498,49.3896419 255.56138,50.0341094 C255.678556,50.8250467 255.766438,51.615984 255.825026,52.4362153 C255.883614,53.0806828 255.942202,53.7251502 255.971496,54.3696177 C255.942202,54.6625574 255.971496,54.9847912 255.971496,55.3070249 L255.971496,55.3070249 Z" fill="#EA4335"></path>
        <path d="M162.494421,13.0651129 C163.197477,12.4792334 163.929826,11.9226478 164.662175,11.3953563 C150.747537,21.8533054 141.754287,38.5215772 141.754287,57.2990152 L141.754287,178.751836 L93.2434642,218.913876 C82.6390452,227.731362 69.8082841,231.978988 57.0068171,231.978988 C40.5728971,231.978988 24.256153,224.889846 13.0072665,211.150972 C-7.00051842,186.719797 -3.54382936,150.62962 20.7408759,130.533953 L162.494421,13.0651129 Z" fill="#FBBC04"></path>
    </g>
</svg>

<svg width="256" height="516" xmlns="http://www.w3.org/2000/svg" preserveAspectRatio="xMidYMid">
	<defs>
		<linearGradient x1="50%" y1="100.777%" x2="50%" y2="-.04%" id="a">
			<stop stop-color="#1A73E8" offset="0%"/>
			<stop stop-color="#4285F4" offset="100%"/>
		</linearGradient>
	</defs>
	<path d="M256 404.228v54.076c0 31.638-25.573 57.3-57.122 57.3-31.55 0-57.124-25.633-57.124-57.3V316.726l114.247 87.502Z" fill="#34A853"/>
	<path d="M256 57.299v346.929l-114.246-87.502V178.752l93.477-77.278c13.71-11.307 20.77-27.682 20.77-44.175Z" fill="url(#a)"/>
	<path d="M255.971 55.307c.03.644.03 1.289.03 1.963 0 16.492-7.06 32.868-20.77 44.175l-93.477 77.278V57.299c0-18.748 8.994-35.446 22.967-45.904a38.265 38.265 0 0 1 3.076-2.138c.498-.322.966-.645 1.464-.938.908-.585 1.875-1.113 2.754-1.581l2.52-1.26 2.108-.967c.85-.351 1.7-.703 2.608-1.025.85-.322 1.757-.615 2.636-.908 1.64-.498 3.31-.967 5.039-1.318.498-.118 1.025-.205 1.581-.323l1.143-.175c.674-.118 1.347-.205 2.021-.293.791-.117 1.582-.205 2.402-.264.645-.059 1.29-.117 1.934-.146.937-.03 1.904-.059 2.87-.059h.03c2.08 0 4.101.117 6.152.322.996.117 2.02.264 3.075.44.996.146 1.992.351 3.047.586.996.205 1.992.468 2.988.761.82.205 1.67.469 2.49.762 1.611.527 3.222 1.113 4.746 1.787a78.23 78.23 0 0 1 2.285 1.025c.966.469 1.933.967 2.87 1.465a59.194 59.194 0 0 1 4.102 2.519c.146.117.292.205.439.293 1.435.996 2.812 2.08 4.189 3.193.674.586 1.347 1.142 2.021 1.758l.059.058c.644.615 1.289 1.23 1.933 1.875.645.645 1.29 1.318 1.904 1.963 1.26 1.347 2.402 2.783 3.486 4.247.762.996 1.465 2.05 2.139 3.076.322.498.644.967.937 1.465.586.908 1.113 1.875 1.582 2.754.352.703.908 1.845 1.26 2.519.322.703.644 1.406.937 2.109.352.85.703 1.728 1.025 2.607.323.85.616 1.758.88 2.637.38 1.26.702 2.519.995 3.75.176.585.293 1.142.381 1.728.176.82.322 1.61.469 2.402.117.644.175 1.289.263 1.933.118.791.205 1.582.264 2.402.059.645.117 1.29.146 1.934-.029.293 0 .615 0 .937Z" fill="#EA4335"/>
	<path d="M162.494 13.065a38.832 38.832 0 0 1 2.168-1.67c-13.914 10.458-22.908 27.127-22.908 45.904v121.453l-48.51 40.162c-10.605 8.817-23.436 13.065-36.237 13.065-16.434 0-32.75-7.09-44-20.828C-7 186.72-3.543 150.63 20.741 130.534L162.494 13.065Z" fill="#FBBC04"/>
</svg>
